X: 746
T: Money in Both Pockets
R:jig
B:O'Neill's 746
Z:Transcribed by Michael Hogan
M:6/8
L:1/8
K:Am
G | c2E EDE | GAG GFE | c2E EDE | G2g fed |
c2E EDE | GAG GFE | DED DEG | ABA A2 :|
G | ceg gec | Bdg dBG | ceg gec | f3 e2f |
gfe agf | gfe dcB | cBA GEG | ABA A2 :|


